svg/color/awc.svg

<?xml version="1.0" encoding="UTF-8" ?>
<!DOCTYPE svg PUBLIC "-//W3C//DTD SVG 1.1//EN" "http://www.w3.org/Graphics/SVG/1.1/DTD/svg11.dtd">
<svg width="250pt" height="250pt" viewBox="0 0 250 250" version="1.1" xmlns="http://www.w3.org/2000/svg">
<g id="#ffffffff">
<path fill="#ffffff" opacity="1.00" d=" M 0.00 0.00 L 250.00 0.00 L 250.00 235.77 C 247.02 228.90 244.58 221.82 242.02 214.80 C 229.42 180.82 217.04 146.76 204.39 112.80 C 196.11 89.49 187.33 66.37 178.89 43.12 C 174.48 30.61 166.76 18.86 155.55 11.48 C 141.59 2.31 123.21 0.70 107.68 6.64 C 97.26 10.56 88.56 18.28 82.62 27.60 C 76.84 36.33 73.88 46.45 70.22 56.15 C 63.70 73.99 57.04 91.78 50.59 109.64 C 37.34 145.71 24.03 181.77 10.77 217.84 C 7.80 226.17 4.44 234.36 1.80 242.81 C 14.86 238.75 27.64 233.86 40.64 229.63 C 43.77 228.43 48.04 227.78 48.88 223.90 C 62.29 186.99 75.99 150.18 89.37 113.26 C 96.68 94.15 103.53 74.86 110.62 55.67 C 112.18 51.57 114.02 47.36 117.36 44.37 C 121.28 40.70 127.29 40.42 132.23 41.81 C 138.03 43.75 140.88 49.71 142.99 54.99 C 151.23 77.34 159.37 99.73 167.63 122.08 C 180.27 156.24 192.71 190.49 205.33 224.65 C 205.95 226.99 208.26 227.91 210.33 228.62 C 223.58 233.11 236.82 237.63 250.00 242.30 L 250.00 250.00 L 0.00 250.00 L 0.00 0.00 M 121.37 134.47 C 109.04 136.72 98.62 146.86 96.13 159.16 C 93.29 171.64 98.81 185.50 109.54 192.50 C 120.24 199.87 135.51 199.71 145.99 191.98 C 157.28 184.04 162.32 168.44 157.56 155.44 C 152.81 140.81 136.46 131.23 121.37 134.47 Z" />
</g>
<g id="#39b5fdff">
<path fill="#39b5fd" opacity="1.00" d=" M 107.68 6.64 C 123.21 0.70 141.59 2.31 155.55 11.48 C 166.76 18.86 174.48 30.61 178.89 43.12 C 187.33 66.37 196.11 89.49 204.39 112.80 C 201.98 110.68 199.00 108.86 195.65 109.59 C 189.82 110.47 183.91 109.37 178.09 110.10 C 173.02 112.04 168.63 116.62 167.63 122.08 C 159.37 99.73 151.23 77.34 142.99 54.99 C 140.88 49.71 138.03 43.75 132.23 41.81 C 127.29 40.42 121.28 40.70 117.36 44.37 C 114.02 47.36 112.18 51.57 110.62 55.67 C 103.53 74.86 96.68 94.15 89.37 113.26 C 89.53 111.25 89.63 109.24 89.79 107.23 C 80.43 107.15 71.09 106.60 61.74 106.29 C 57.76 106.08 53.59 106.81 50.59 109.64 C 57.04 91.78 63.70 73.99 70.22 56.15 C 73.88 46.45 76.84 36.33 82.62 27.60 C 88.56 18.28 97.26 10.56 107.68 6.64 Z" />
</g>
<g id="#299dfcff">
<path fill="#299dfc" opacity="1.00" d=" M 50.59 109.64 C 53.59 106.81 57.76 106.08 61.74 106.29 C 71.09 106.60 80.43 107.15 89.79 107.23 C 89.63 109.24 89.53 111.25 89.37 113.26 C 75.99 150.18 62.29 186.99 48.88 223.90 C 48.04 227.78 43.77 228.43 40.64 229.63 C 27.64 233.86 14.86 238.75 1.80 242.81 C 4.44 234.36 7.80 226.17 10.77 217.84 C 24.03 181.77 37.34 145.71 50.59 109.64 Z" />
<path fill="#299dfc" opacity="1.00" d=" M 178.09 110.10 C 183.91 109.37 189.82 110.47 195.65 109.59 C 199.00 108.86 201.98 110.68 204.39 112.80 C 217.04 146.76 229.42 180.82 242.02 214.80 C 244.58 221.82 247.02 228.90 250.00 235.77 L 250.00 242.30 C 236.82 237.63 223.58 233.11 210.33 228.62 C 208.26 227.91 205.95 226.99 205.33 224.65 C 192.71 190.49 180.27 156.24 167.63 122.08 C 168.63 116.62 173.02 112.04 178.09 110.10 Z" />
<path fill="#299dfc" opacity="1.00" d=" M 121.37 134.47 C 136.46 131.23 152.81 140.81 157.56 155.44 C 162.32 168.44 157.28 184.04 145.99 191.98 C 135.51 199.71 120.24 199.87 109.54 192.50 C 98.81 185.50 93.29 171.64 96.13 159.16 C 98.62 146.86 109.04 136.72 121.37 134.47 Z" />
</g>
</svg>

<?xml version="1.0" encoding="utf-8"?>
<!-- Generator: Adobe Illustrator 26.0.3, SVG Export Plug-In . SVG Version: 6.00 Build 0)  -->
<svg version="1.1" id="Layer_1" xmlns="http://www.w3.org/2000/svg" xmlns:xlink="http://www.w3.org/1999/xlink" x="0px" y="0px"
	 viewBox="0 0 250 250" style="enable-background:new 0 0 250 250;" xml:space="preserve">
<style type="text/css">
	.st0{fill:#39B5FD;}
	.st1{fill:#299DFC;}
</style>
<g id="_x23_39b5fdff">
	<path class="st0" d="M107.7,6.6c15.5-5.9,33.9-4.3,47.9,4.8c11.2,7.4,18.9,19.1,23.3,31.6c8.4,23.3,17.2,46.4,25.5,69.7
		c-2.4-2.1-5.4-3.9-8.7-3.2c-5.8,0.9-11.7-0.2-17.6,0.5c-5.1,1.9-9.5,6.5-10.5,12C159.4,99.7,151.2,77.3,143,55
		c-2.1-5.3-5-11.2-10.8-13.2c-4.9-1.4-10.9-1.1-14.9,2.6c-3.3,3-5.2,7.2-6.7,11.3c-7.1,19.2-13.9,38.5-21.2,57.6c0.2-2,0.3-4,0.4-6
		c-9.4-0.1-18.7-0.6-28-0.9c-4-0.2-8.2,0.5-11.2,3.3C57,91.8,63.7,74,70.2,56.2c3.7-9.7,6.6-19.8,12.4-28.6
		C88.6,18.3,97.3,10.6,107.7,6.6z"/>
</g>
<g id="_x23_299dfcff">
	<path class="st1" d="M50.6,109.6c3-2.8,7.2-3.6,11.2-3.3c9.3,0.3,18.7,0.9,28,0.9c-0.2,2-0.3,4-0.4,6C76,150.2,62.3,187,48.9,223.9
		c-0.8,3.9-5.1,4.5-8.2,5.7c-13,4.2-25.8,9.1-38.8,13.2c2.6-8.4,6-16.6,9-25C24,181.8,37.3,145.7,50.6,109.6z"/>
	<path class="st1" d="M178.1,110.1c5.8-0.7,11.7,0.4,17.6-0.5c3.4-0.7,6.3,1.1,8.7,3.2c12.6,34,25,68,37.6,102c2.6,7,5,14.1,8,21
		v6.5c-13.2-4.7-26.4-9.2-39.7-13.7c-2.1-0.7-4.4-1.6-5-4c-12.6-34.2-25.1-68.4-37.7-102.6C168.6,116.6,173,112,178.1,110.1z"/>
	<path class="st1" d="M121.4,134.5c15.1-3.2,31.4,6.3,36.2,21c4.8,13-0.3,28.6-11.6,36.5c-10.5,7.7-25.8,7.9-36.5,0.5
		c-10.7-7-16.2-20.9-13.4-33.3C98.6,146.9,109,136.7,121.4,134.5z"/>
</g>
</svg>
